assets/dude/We–Patsy.svg

<svg width="241" height="105" viewBox="0 0 241 105" fill="none" xmlns="http://www.w3.org/2000/svg">
<path d="M124.223 2.73989C115.683 2.73989 101.123 5.95989 101.123 15.7599C101.123 25.5599 103.223 25.2799 103.223 37.7399C103.223 38.4399 103.783 38.9999 104.483 38.9999H119.883C120.443 38.9999 120.723 39.2799 120.723 39.5599C120.723 39.9799 120.303 40.8199 120.303 40.8199L109.523 64.8999C108.823 66.2999 108.263 66.7199 107.563 66.7199H95.1028C94.4028 66.7199 93.8428 66.2999 93.0028 64.7599L82.3628 40.8199C82.3628 40.8199 81.9428 39.9799 81.9428 39.5599C81.9428 39.2799 82.2228 38.9999 82.7828 38.9999H92.7228C93.4228 38.9999 93.9828 38.4399 93.9828 37.7399C93.9828 25.2799 96.0828 25.5599 96.0828 15.7599C96.0828 5.95989 82.9228 2.73989 74.3828 2.73989C65.8428 2.73989 51.7028 5.95989 51.7028 15.7599C51.7028 25.5599 53.8028 25.2799 53.8028 37.7399C53.8028 38.4399 54.3628 38.9999 55.0628 38.9999H66.9628C67.5228 38.9999 67.8028 39.2799 67.8028 39.5599C67.8028 39.9799 67.3828 40.8199 67.3828 40.8199L56.6028 64.8999C55.9028 66.2999 55.3428 66.7199 54.6428 66.7199H42.1828C41.4828 66.7199 40.9228 66.2999 40.0828 64.7599L29.4428 40.8199C29.4428 40.8199 29.0228 39.9799 29.0228 39.5599C29.0228 39.2799 29.3028 38.9999 29.8628 38.9999H43.1628C43.8628 38.9999 44.4228 38.4399 44.4228 37.7399C44.4228 25.2799 46.5228 25.5599 46.5228 15.7599C46.5228 5.95989 32.5228 2.73989 23.9828 2.73989C15.4428 2.73989 0.882812 5.95989 0.882812 15.7599C0.882812 25.5599 2.98281 25.2799 2.98281 37.7399C2.98281 38.4399 3.54281 38.9999 4.24281 38.9999H12.5028C13.2028 38.9999 13.9028 39.5599 14.4628 40.8199L41.4828 101.86C41.7628 102.42 43.0228 104.52 45.9628 104.52C48.6228 104.52 50.0228 102.42 50.3028 101.86L70.8828 55.7999C70.8828 55.7999 71.5828 53.9799 72.4228 53.9799C73.2628 53.9799 73.9628 55.7999 73.9628 55.7999L94.4028 101.86C94.6828 102.42 95.9428 104.52 98.8828 104.52C101.543 104.52 102.943 102.42 103.223 101.86L130.383 40.8199C130.943 39.5599 131.643 38.9999 132.343 38.9999H143.403C144.103 38.9999 144.663 38.4399 144.663 37.7399C144.663 25.2799 146.763 25.5599 146.763 15.7599C146.763 5.95989 132.763 2.73989 124.223 2.73989Z" fill="#FF1C31"/>
<path d="M237.92 60.8399C237.92 60.1399 237.36 59.5799 236.66 59.5799H229.38C228.68 59.5799 228.12 60.1399 228.12 60.8399C228.12 64.3399 225.32 66.7199 221.82 66.7199H182.48C181.78 66.7199 181.22 66.1599 181.22 65.4599V57.8999C181.22 57.1999 181.78 56.6399 182.48 56.6399H194.24C194.94 56.6399 195.5 57.1999 195.5 57.8999V59.1599C195.5 59.8599 196.06 60.4199 196.76 60.4199H215.66C216.36 60.4199 216.92 59.8599 216.92 59.1599V46.5599C216.92 45.8599 216.36 45.2999 215.66 45.2999H196.76C196.06 45.2999 195.5 45.8599 195.5 46.5599V47.8199C195.5 48.5199 194.94 49.0799 194.24 49.0799H182.48C181.78 49.0799 181.22 48.5199 181.22 47.8199V40.2599C181.22 39.5599 181.78 38.9999 182.48 38.9999H221.82C225.32 38.9999 228.12 41.3799 228.12 44.8799C228.12 45.5799 228.68 46.1399 229.38 46.1399H236.66C237.36 46.1399 237.92 45.5799 237.92 44.8799V37.7399C237.92 25.2799 240.02 25.4199 240.02 15.6199C240.02 3.15989 214.54 0.639893 196.34 0.639893C178.14 0.639893 152.66 3.15989 152.66 15.6199C152.66 25.4199 154.76 25.2799 154.76 37.7399C154.76 38.4399 155.32 38.9999 156.02 38.9999H169.88C170.58 38.9999 171.14 39.5599 171.14 40.2599V65.4599C171.14 66.1599 170.58 66.7199 169.88 66.7199H156.02C155.32 66.7199 154.76 67.2799 154.76 67.9799C154.76 80.4399 152.66 80.4399 152.66 90.2399C152.66 102.7 178.14 104.94 196.34 104.94C214.54 104.94 240.02 102.7 240.02 90.2399C240.02 80.4399 237.92 80.4399 237.92 67.9799V60.8399Z" fill="#FF1C31"/>
</svg>

<svg xmlns="http://www.w3.org/2000/svg" fill="none" viewBox="0 0 241 105"><path fill="#FF1C31" d="M124.223 2.74c-8.54 0-23.1 3.22-23.1 13.02 0 9.8 2.1 9.52 2.1 21.98 0 .7.56 1.26 1.26 1.26h15.4c.56 0 .84.28.84.56 0 .42-.42 1.26-.42 1.26l-10.78 24.08c-.7 1.4-1.26 1.82-1.96 1.82h-12.46c-.7 0-1.26-.42-2.1-1.96l-10.64-23.94s-.42-.84-.42-1.26c0-.28.28-.56.84-.56h9.94c.7 0 1.26-.56 1.26-1.26 0-12.46 2.1-12.18 2.1-21.98s-13.16-13.02-21.7-13.02-22.68 3.22-22.68 13.02c0 9.8 2.1 9.52 2.1 21.98 0 .7.56 1.26 1.26 1.26h11.9c.56 0 .84.28.84.56 0 .42-.42 1.26-.42 1.26L56.603 64.9c-.7 1.4-1.26 1.82-1.96 1.82h-12.46c-.7 0-1.26-.42-2.1-1.96l-10.64-23.94s-.42-.84-.42-1.26c0-.28.28-.56.84-.56h13.3c.7 0 1.26-.56 1.26-1.26 0-12.46 2.1-12.18 2.1-21.98s-14-13.02-22.54-13.02S.883 5.96.883 15.76c0 9.8 2.1 9.52 2.1 21.98 0 .7.56 1.26 1.26 1.26h8.26c.7 0 1.4.56 1.96 1.82l27.02 61.04c.28.56 1.54 2.66 4.48 2.66 2.66 0 4.06-2.1 4.34-2.66l20.58-46.06s.7-1.82 1.54-1.82c.84 0 1.54 1.82 1.54 1.82l20.44 46.06c.28.56 1.54 2.66 4.48 2.66 2.66 0 4.06-2.1 4.34-2.66l27.16-61.04c.56-1.26 1.26-1.82 1.96-1.82h11.06c.7 0 1.26-.56 1.26-1.26 0-12.46 2.1-12.18 2.1-21.98s-14-13.02-22.54-13.02zM237.92 60.84c0-.7-.56-1.26-1.26-1.26h-7.28c-.7 0-1.26.56-1.26 1.26 0 3.5-2.8 5.88-6.3 5.88h-39.34c-.7 0-1.26-.56-1.26-1.26V57.9c0-.7.56-1.26 1.26-1.26h11.76c.7 0 1.26.56 1.26 1.26v1.26c0 .7.56 1.26 1.26 1.26h18.9c.7 0 1.26-.56 1.26-1.26v-12.6c0-.7-.56-1.26-1.26-1.26h-18.9c-.7 0-1.26.56-1.26 1.26v1.26c0 .7-.56 1.26-1.26 1.26h-11.76c-.7 0-1.26-.56-1.26-1.26v-7.56c0-.7.56-1.26 1.26-1.26h39.34c3.5 0 6.3 2.38 6.3 5.88 0 .7.56 1.26 1.26 1.26h7.28c.7 0 1.26-.56 1.26-1.26v-7.14c0-12.46 2.1-12.32 2.1-22.12 0-12.46-25.48-14.98-43.68-14.98s-43.68 2.52-43.68 14.98c0 9.8 2.1 9.66 2.1 22.12 0 .7.56 1.26 1.26 1.26h13.86c.7 0 1.26.56 1.26 1.26v25.2c0 .7-.56 1.26-1.26 1.26h-13.86c-.7 0-1.26.56-1.26 1.26 0 12.46-2.1 12.46-2.1 22.26 0 12.46 25.48 14.7 43.68 14.7s43.68-2.24 43.68-14.7c0-9.8-2.1-9.8-2.1-22.26v-7.14z"/></svg>
